X: 38524
T: Stenselepolskan
R: three-two
M: 3/2
K: Gminor
M:3/4
[DG,]B BA/B/ c/B/A/G/|FA AG/A/ B/A/G/F/|EE/F/ GG/A/ BA/G/|^F/G/A/F/ GD B,/C/B,/A,/|
[DG,]B BA/B/ c/B/A/G/|FA AG/A/ B/A/G/F/|EE/F/ GG/A/ BA/G/|^F/G/A/F/ G4:|
|:Dd d^c/d/ ed|Dc c=B/c/ d/c/_B/A/|G/^F/G/A/ B/A/B/c/ dd|^cA/c/ d2 d/=c/B/A/|
Dd d^c/d/ ed|Dc c=B/c/ d/c/_B/A/|G/^F/G/A/ B/A/B/c/ d/^c/d/e/|d^F G4:|

